core/schema/project/admin/processing/nuke_scripts/nuke15/script_resources/Marvel_20180214_ACEScct_to_RRTODT_Rec709_65x.cube
TITLE "Generated by Foundry::LUT"
LUT_3D_SIZE 5
0.000000 0.000000 0.000000
0.129124 0.000000 0.000000
0.754634 0.000000 0.000000
1.000000 0.117166 0.327051
1.000000 0.992870 0.670298
0.000000 0.109318 0.000000
0.104398 0.106649 0.000000
0.754639 0.000000 0.000000
1.000000 0.242656 0.324281
1.000000 0.992941 0.670685
0.000000 0.700413 0.000000
0.000000 0.700053 0.000000
0.690600 0.674078 0.000000
1.000000 0.718315 0.286547
1.000000 0.994016 0.676555
0.042385 1.000000 0.439537
0.086741 1.000000 0.439800
0.599878 1.000000 0.444410
1.000000 0.994521 0.568369
1.000000 1.000000 0.736428
1.000000 1.000000 0.873657
1.000000 1.000000 0.873644
1.000000 1.000000 0.873446
1.000000 1.000000 0.869146
1.000000 1.000000 0.736428
0.000000 0.000000 0.111950
0.124946 0.000000 0.111059
0.758366 0.000000 0.106165
1.000000 0.128266 0.326914
1.000000 0.992878 0.670341
0.000000 0.112980 0.108532
0.105393 0.105393 0.105393
0.757106 0.000000 0.103825
1.000000 0.255959 0.324150
1.000000 0.992949 0.670728
0.000000 0.700801 0.000000
0.000000 0.700429 0.000000
0.691567 0.674561 0.000000
1.000000 0.719534 0.286586
1.000000 0.994023 0.676597
0.049574 1.000000 0.467969
0.092714 1.000000 0.468200
0.598311 1.000000 0.472291
1.000000 0.994510 0.573574
1.000000 1.000000 0.736428
1.000000 1.000000 0.875938
1.000000 1.000000 0.875925
1.000000 1.000000 0.875733
1.000000 1.000000 0.871607
1.000000 1.000000 0.736428
0.000000 0.000000 0.698931
0.000000 0.000000 0.698755
0.801617 0.000000 0.691395
1.000000 0.126751 0.722908
1.000000 0.993000 0.671007
0.000000 0.081936 0.698327
0.000000 0.078265 0.698168
0.800216 0.000000 0.691310
1.000000 0.253517 0.721730
1.000000 0.993070 0.671393
0.000000 0.699333 0.672716
0.000000 0.698921 0.672794
0.673121 0.673121 0.673121
1.000000 0.719113 0.707271
1.000000 0.994140 0.677234
0.000000 1.000000 0.755718
0.000000 1.000000 0.755718
0.577868 1.000000 0.756024
1.000000 0.993698 0.782833
1.000000 1.000000 0.736428
1.000000 1.000000 0.903423
1.000000 1.000000 0.903415
1.000000 1.000000 0.903293
1.000000 1.000000 0.900687
1.000000 1.000000 0.783382
0.068168 0.081607 1.000000
0.118778 0.077631 1.000000
0.753056 0.000000 1.000000
1.000000 0.034514 1.000000
1.000000 0.992109 0.989857
0.078394 0.144316 1.000000
0.128876 0.140270 1.000000
0.747157 0.036142 1.000000
1.000000 0.098836 1.000000
1.000000 0.992173 0.989855
0.000000 0.700826 1.000000
0.000000 0.700190 1.000000
0.534168 0.681770 1.000000
1.000000 0.688903 1.000000
1.000000 0.993146 0.989819
0.112282 1.000000 0.994968
0.122914 1.000000 0.994937
0.491408 1.000000 0.994086
0.992614 0.992613 0.992614
1.000000 1.000000 0.989695
1.000000 1.000000 0.994109
1.000000 1.000000 0.994109
1.000000 1.000000 0.994104
1.000000 1.000000 0.994003
1.000000 1.000000 0.991709
1.000000 1.000000 1.000000
1.000000 1.000000 1.000000
1.000000 1.000000 1.000000
1.000000 1.000000 1.000000
1.000000 1.000000 1.000000
1.000000 1.000000 1.000000
1.000000 1.000000 1.000000
1.000000 1.000000 1.000000
1.000000 1.000000 1.000000
1.000000 1.000000 1.000000
1.000000 1.000000 1.000000
1.000000 1.000000 1.000000
1.000000 1.000000 1.000000
1.000000 1.000000 1.000000
1.000000 1.000000 1.000000
1.000000 1.000000 1.000000
1.000000 1.000000 1.000000
1.000000 1.000000 1.000000
1.000000 1.000000 1.000000
1.000000 1.000000 1.000000
1.000000 1.000000 1.000000
1.000000 1.000000 1.000000
1.000000 1.000000 1.000000
1.000000 1.000000 1.000000
1.000000 1.000000 1.000000
