core/schema/project/admin/processing/nuke_scripts/nuke15/script_resources/Marvel_20180214_ACEScct_to_RRTODT_Rec709_65x.cube
TITLE "Generated by Foundry::LUT"
LUT_3D_SIZE 65
0.000000 0.000000 0.000000
0.000000 0.000000 0.000000
0.000000 0.000000 0.000000
0.000000 0.000000 0.000000
0.000000 0.000000 0.000000
0.000000 0.000000 0.000000
0.000000 0.000000 0.000000
0.000000 0.000000 0.000000
0.000000 0.000000 0.000000
0.015599 0.000000 0.000000
0.039660 0.000000 0.000000
0.055157 0.000000 0.000000
0.069588 0.000000 0.000000
0.085189 0.000000 0.000000
0.101126 0.000000 0.000000
0.114888 0.000000 0.000000
0.129124 0.000000 0.000000
0.144891 0.000000 0.000000
0.162771 0.000000 0.000000
0.182864 0.000000 0.000000
0.205896 0.000000 0.000000
0.231774 0.000000 0.000000
0.260542 0.000000 0.000000
0.291971 0.000000 0.000000
0.325365 0.000000 0.000000
0.363453 0.000000 0.000000
0.406472 0.000000 0.000000
0.454677 0.000000 0.000000
0.508777 0.000000 0.000000
0.566855 0.000000 0.000000
0.627820 0.000000 0.000000
0.690702 0.000000 0.000000
0.754634 0.000000 0.000000
0.818950 0.000000 0.000000
0.880668 0.000000 0.000000
0.936023 0.000000 0.000000
0.981289 0.000000 0.032837
1.000000 0.000000 0.051235
1.000000 0.000000 0.068150
1.000000 0.000000 0.085472
1.000000 0.000000 0.103646
1.000000 0.000000 0.123099
1.000000 0.000000 0.144738
1.000000 0.000000 0.168354
1.000000 0.000000 0.193937
1.000000 0.000000 0.222330
1.000000 0.000000 0.253383
1.000000 0.077080 0.287845
1.000000 0.117166 0.327051
1.000000 0.266262 0.370859
1.000000 0.365859 0.418826
1.000000 0.449841 0.469089
1.000000 0.523113 0.520863
1.000000 0.680850 0.519567
1.000000 0.784039 0.514481
1.000000 0.842399 0.514833
1.000000 0.882293 0.518899
1.000000 0.910839 0.526381
1.000000 0.932022 0.537453
1.000000 0.948584 0.551727
1.000000 0.961763 0.569488
1.000000 0.972213 0.590992
1.000000 0.980647 0.615619
1.000000 0.987400 0.642805
1.000000 0.992870 0.670298
0.000000 0.000000 0.000000
0.000000 0.000000 0.000000
0.000000 0.000000 0.000000
0.000000 0.000000 0.000000
0.000000 0.000000 0.000000
0.000000 0.000000 0.000000
0.000000 0.000000 0.000000
0.000000 0.000000 0.000000
0.000000 0.000000 0.000000
0.021659 0.000000 0.000000
0.043038 0.000000 0.000000
0.057474 0.000000 0.000000
0.071561 0.000000 0.000000
0.086985 0.000000 0.000000
0.102463 0.000000 0.000000
0.115896 0.000000 0.000000
0.130086 0.000000 0.000000
0.145741 0.000000 0.000000
0.163604 0.000000 0.000000
0.183613 0.000000 0.000000
0.206641 0.000000 0.000000
0.232438 0.000000 0.000000
0.261184 0.000000 0.000000
0.292506 0.000000 0.000000
0.325845 0.000000 0.000000
0.363930 0.000000 0.000000
0.406880 0.000000 0.000000
0.454606 0.000000 0.000000
0.508734 0.000000 0.000000
0.566846 0.000000 0.000000
0.627832 0.000000 0.000000
0.690723 0.000000 0.000000
0.754658 0.000000 0.000000
0.818978 0.000000 0.000000
0.880661 0.000000 0.000000
0.936011 0.000000 0.000000
0.981250 0.000000 0.032385
1.000000 0.000000 0.050995
1.000000 0.000000 0.067963
1.000000 0.000000 0.085164
1.000000 0.000000 0.103345
1.000000 0.000000 0.122828
1.000000 0.000000 0.144507
1.000000 0.000000 0.168150
1.000000 0.000000 0.193750
1.000000 0.000000 0.222164
1.000000 0.000000 0.253219
1.000000 0.081447 0.287698
1.000000 0.122380 0.326921
1.000000 0.269729 0.370747
1.000000 0.368281 0.418733
1.000000 0.451669 0.469012
1.000000 0.524473 0.520799
1.000000 0.681613 0.519523
1.000000 0.784321 0.514479
1.000000 0.842570 0.514843
1.000000 0.882398 0.518916
1.000000 0.910896 0.526407
1.000000 0.932061 0.537480
1.000000 0.948611 0.551753
1.000000 0.961779 0.569518
1.000000 0.972224 0.591019
1.000000 0.980655 0.615644
1.000000 0.987405 0.642827
1.000000 0.992873 0.670316
0.000000 0.000000 0.000000
0.000000 0.000000 0.000000
0.000000 0.000000 0.000000
0.000000 0.000000 0.000000
0.000000 0.000000 0.000000
0.000000 0.000000 0.000000
0.000000 0.000000 0.000000
0.000000 0.000000 0.000000
0.000000 0.000000 0.000000
0.027046 0.000000 0.000000
0.046074 0.000000 0.000000
0.059722 0.000000 0.000000
0.073628 0.000000 0.000000
0.088734 0.000000 0.000000
0.103772 0.000000 0.000000
0.116932 0.000000 0.000000
0.131034 0.000000 0.000000
0.146640 0.000000 0.000000
0.164430 0.000000 0.000000
0.184357 0.000000 0.000000
0.207381 0.000000 0.000000
0.233098 0.000000 0.000000
0.261824 0.000000 0.000000
0.293040 0.000000 0.000000
0.326325 0.000000 0.000000
0.364381 0.000000 0.000000
0.406771 0.000000 0.000000
0.454561 0.000000 0.000000
0.508712 0.000000 0.000000
0.566852 0.000000 0.000000
0.627855 0.000000 0.000000
0.690753 0.000000 0.000000
0.754683 0.000000 0.000000
0.818982 0.000000 0.000000
0.880661 0.000000 0.000000
0.936004 0.000000 0.000000
0.981286 0.000000 0.032049
1.000000 0.000000 0.050675
1.000000 0.000000 0.067539
1.000000 0.000000 0.084809
1.000000 0.000000 0.103048
1.000000 0.000000 0.122561
1.000000 0.000000 0.144277
1.000000 0.000000 0.167939
1.000000 0.000000 0.193564
1.000000 0.000000 0.221999
1.000000 0.000000 0.253055
1.000000 0.085801 0.287551
1.000000 0.127581 0.326791
1.000000 0.273188 0.370635
1.000000 0.370698 0.418640
1.000000 0.453493 0.468934
1.000000 0.525833 0.520735
1.000000 0.682376 0.519478
1.000000 0.784603 0.514477
1.000000 0.842742 0.514852
1.000000 0.882503 0.518932
1.000000 0.910953 0.526433
1.000000 0.932099 0.537507
1.000000 0.948637 0.551780
1.000000 0.961795 0.569547
1.000000 0.972235 0.591047
1.000000 0.980662 0.615669
1.000000 0.987409 0.642850
1.000000 0.992876 0.670334
0.000000 0.000000 0.000000
0.000000 0.000000 0.000000
0.000000 0.000000 0.000000
0.000000 0.000000 0.000000
0.000000 0.000000 0.000000
0.000000 0.000000 0.000000
0.000000 0.000000 0.000000
0.000000 0.000000 0.000000
0.000000 0.000000 0.000000
0.031955 0.000000 0.000000
0.048949 0.000000 0.000000
0.061877 0.000000 0.000000
0.075627 0.000000 0.000000
0.090469 0.000000 0.000000
0.105054 0.000000 0.000000
0.117990 0.000000 0.000000
0.131970 0.000000 0.000000
0.147552 0.000000 0.000000
0.165249 0.000000 0.000000
0.185096 0.000000 0.000000
0.208117 0.000000 0.000000
0.233755 0.000000 0.000000
0.262460 0.000000 0.000000
0.293571 0.000000 0.000000
0.326665 0.000000 0.000000
0.364277 0.000000 0.000000
0.406697 0.000000 0.000000
0.454548 0.000000 0.000000
0.508711 0.000000 0.000000
0.566873 0.000000 0.000000
0.627888 0.000000 0.000000
0.690775 0.000000 0.000000
0.754697 0.000000 0.000000
0.818994 0.000000 0.000000
0.880666 0.000000 0.000000
0.935994 0.000000 0.000000
0.981255 0.000000 0.031141
1.000000 0.000000 0.050021
1.000000 0.000000 0.067109
1.000000 0.000000 0.084460
1.000000 0.000000 0.102754
1.000000 0.000000 0.122296
1.000000 0.000000 0.144050
1.000000 0.000000 0.167729
1.000000 0.000000 0.193380
1.000000 0.000000 0.221834
1.000000 0.000000 0.252892
1.000000 0.090140 0.287405
1.000000 0.132769 0.326662
1.000000 0.276639 0.370523
1.000000 0.373110 0.418547
1.000000 0.455315 0.468857
1.000000 0.527190 0.520672
1.000000 0.683137 0.519433
1.000000 0.784884 0.514474
1.000000 0.842914 0.514862
1.000000 0.882608 0.518949
1.000000 0.911010 0.526459
1.000000 0.932138 0.537534
1.000000 0.948663 0.551807
1.000000 0.961811 0.569577
1.000000 0.972246 0.591074
1.000000 0.980670 0.615694
1.000000 0.987414 0.642873
1.000000 0.992880 0.670352
0.000000 0.000000 0.000000
0.000000 0.000000 0.000000
0.000000 0.000000 0.000000
0.000000 0.000000 0.000000
0.000000 0.000000 0.000000
0.000000 0.000000 0.000000
0.000000 0.000000 0.000000
0.000000 0.000000 0.000000
0.008061 0.000000 0.000000
0.036099 0.000000 0.000000
0.051515 0.000000 0.000000
0.063989 0.000000 0.000000
0.077564 0.000000 0.000000
0.092192 0.000000 0.000000
0.106310 0.000000 0.000000
0.119031 0.000000 0.000000
0.132894 0.000000 0.000000
0.148454 0.000000 0.000000
0.166060 0.000000 0.000000
0.185905 0.000000 0.000000
0.208849 0.000000 0.000000
0.234409 0.000000 0.000000
0.263094 0.000000 0.000000
0.293737 0.000000 0.000000
0.326528 0.000000 0.000000
0.364215 0.000000 0.000000
0.406654 0.000000 0.000000
0.454560 0.000000 0.000000
0.508738 0.000000 0.000000
0.566907 0.000000 0.000000
0.627922 0.000000 0.000000
0.690802 0.000000 0.000000
0.754718 0.000000 0.000000
0.818998 0.000000 0.000000
0.880646 0.000000 0.000000
0.935948 0.000000 0.000000
0.981179 0.000000 0.029903
1.000000 0.000000 0.049382
1.000000 0.000000 0.066686
1.000000 0.000000 0.084116
1.000000 0.000000 0.102453
1.000000 0.000000 0.122034
1.000000 0.000000 0.143825
1.000000 0.000000 0.167521
1.000000 0.000000 0.193196
1.000000 0.000000 0.221670
1.000000 0.000000 0.252730
1.000000 0.094465 0.287259
1.000000 0.137941 0.326533
1.000000 0.280083 0.370412
1.000000 0.375518 0.418455
1.000000 0.457134 0.468780
1.000000 0.528546 0.520608
1.000000 0.683898 0.519388
1.000000 0.785165 0.514472
1.000000 0.843085 0.514871
1.000000 0.882713 0.518965
1.000000 0.911067 0.526486
1.000000 0.932176 0.537561
1.000000 0.948690 0.551834
1.000000 0.961827 0.569606
1.000000 0.972257 0.591102
1.000000 0.980678 0.615719
1.000000 0.987419 0.642895
1.000000 0.992883 0.670371
0.000000 0.000000 0.000000
0.000000 0.000000 0.000000
0.000000 0.000000 0.000000
0.000000 0.000000 0.000000
0.000000 0.000000 0.000000
0.000000 0.000000 0.000000
0.000000 0.000000 0.000000
0.000000 0.000000 0.000000
0.015955 0.000000 0.000000
0.039859 0.000000 0.000000
0.053955 0.000000 0.000000
0.066157 0.000000 0.000000
0.079442 0.000000 0.000000
0.093872 0.000000 0.000000
0.107542 0.000000 0.000000
0.120055 0.000000 0.000000
0.133805 0.000000 0.000000
0.149347 0.000000 0.000000
0.166864 0.000000 0.000000
0.186710 0.000000 0.000000
0.209481 0.000000 0.000000
0.234668 0.000000 0.000000
0.263030 0.000000 0.000000
0.293626 0.000000 0.000000
0.326451 0.000000 0.000000
0.364211 0.000000 0.000000
0.406668 0.000000 0.000000
0.454608 0.000000 0.000000
0.508772 0.000000 0.000000
0.566934 0.000000 0.000000
0.627944 0.000000 0.000000
0.690816 0.000000 0.000000
0.754720 0.000000 0.000000
0.818988 0.000000 0.000000
0.880620 0.000000 0.000000
0.935905 0.000000 0.000000
0.981107 0.000000 0.028699
1.000000 0.000000 0.048821
1.000000 0.000000 0.066271
1.000000 0.000000 0.083777
1.000000 0.000000 0.102154
1.000000 0.000000 0.121775
1.000000 0.000000 0.143602
1.000000 0.000000 0.167314
1.000000 0.000000 0.193014
1.000000 0.000000 0.221508
1.000000 0.000000 0.252569
1.000000 0.098775 0.287113
1.000000 0.143100 0.326404
1.000000 0.283518 0.370301
1.000000 0.377922 0.418362
1.000000 0.458950 0.468703
1.000000 0.529900 0.520545
1.000000 0.684658 0.519344
1.000000 0.785446 0.514470
1.000000 0.843257 0.514880
1.000000 0.882817 0.518982
1.000000 0.911124 0.526512
1.000000 0.932215 0.537588
1.000000 0.948716 0.551860
1.000000 0.961842 0.569636
1.000000 0.972268 0.591129
1.000000 0.980685 0.615744
1.000000 0.987423 0.642918
1.000000 0.992886 0.670389
0.000000 0.000000 0.000000
0.000000 0.000000 0.000000
0.000000 0.000000 0.000000
0.000000 0.000000 0.000000
0.000000 0.000000 0.000000
0.000000 0.000000 0.000000
0.000000 0.000000 0.000000
0.000000 0.000000 0.000000
0.021987 0.000000 0.000000
0.043208 0.000000 0.000000
0.056290 0.000000 0.000000
0.068247 0.000000 0.000000
0.081342 0.000000 0.000000
0.095512 0.000000 0.000000
0.108711 0.000000 0.000000
0.121063 0.000000 0.000000
0.134579 0.000000 0.000000
0.149950 0.000000 0.000000
0.167212 0.000000 0.000000
0.186876 0.000000 0.000000
0.209455 0.000000 0.000000
0.234659 0.000000 0.000000
0.263078 0.000000 0.000000
0.293633 0.000000 0.000000
0.326495 0.000000 0.000000
0.364248 0.000000 0.000000
0.406679 0.000000 0.000000
0.454644 0.000000 0.000000
0.508796 0.000000 0.000000
0.566962 0.000000 0.000000
0.627975 0.000000 0.000000
0.690837 0.000000 0.000000
0.754730 0.000000 0.000000
0.818985 0.000000 0.000000
0.880594 0.000000 0.000000
0.935866 0.000000 0.000000
0.981037 0.000000 0.027526
1.000000 0.000000 0.048301
1.000000 0.000000 0.065865
1.000000 0.000000 0.083444
1.000000 0.000000 0.101858
1.000000 0.000000 0.121518
1.000000 0.000000 0.143380
1.000000 0.000000 0.167109
1.000000 0.000000 0.192833
1.000000 0.000000 0.221346
1.000000 0.000000 0.252408
1.000000 0.103072 0.286968
1.000000 0.148245 0.326275
1.000000 0.286947 0.370190
1.000000 0.380321 0.418270
1.000000 0.460665 0.468626
1.000000 0.531252 0.520482
1.000000 0.685418 0.519299
1.000000 0.785727 0.514468
1.000000 0.843428 0.514890
1.000000 0.882922 0.518999
1.000000 0.911181 0.526538
1.000000 0.932253 0.537614
1.000000 0.948743 0.551887
1.000000 0.961858 0.569665
1.000000 0.972280 0.591157
1.000000 0.980693 0.615769
1.000000 0.987428 0.642940
1.000000 0.992890 0.670407
0.000000 0.000387 0.000000
0.000000 0.002055 0.000000
0.000000 0.003671 0.000000
0.000000 0.005237 0.000000
0.000000 0.006756 0.000000
0.000000 0.008018 0.000000
0.000000 0.009155 0.000000
0.000000 0.010260 0.000000
0.019206 0.008484 0.000000
0.041894 0.000557 0.000000
0.055833 0.000000 0.000000
0.067870 0.000000 0.000000
0.081119 0.000000 0.000000
0.095224 0.000000 0.000000
0.108130 0.000000 0.000000
0.120488 0.000000 0.000000
0.134132 0.000000 0.000000
0.149640 0.000000 0.000000
0.166972 0.000000 0.000000
0.186746 0.000000 0.000000
0.209352 0.000000 0.000000
0.234567 0.000000 0.000000
0.263034 0.000000 0.000000
0.293540 0.000000 0.000000
0.326457 0.000000 0.000000
0.364219 0.000000 0.000000
0.406660 0.000000 0.000000
0.454672 0.000000 0.000000
0.508826 0.000000 0.000000
0.566993 0.000000 0.000000
0.628002 0.000000 0.000000
0.690853 0.000000 0.000000
0.754734 0.000000 0.000000
0.818973 0.000000 0.000000
0.880573 0.000000 0.000000
0.935831 0.000000 0.000000
0.981044 0.000000 0.026658
1.000000 0.000000 0.047792
1.000000 0.000000 0.065465
1.000000 0.000000 0.083115
1.000000 0.000000 0.101566
1.000000 0.000000 0.121265
1.000000 0.000000 0.143161
1.000000 0.000000 0.166905
1.000000 0.000000 0.192653
1.000000 0.000000 0.221184
1.000000 0.000000 0.252248
1.000000 0.107355 0.286824
1.000000 0.153375 0.326147
1.000000 0.290367 0.370080
1.000000 0.382716 0.418178
1.000000 0.462371 0.468550
1.000000 0.532602 0.520418
1.000000 0.686176 0.519255
1.000000 0.786007 0.514466
1.000000 0.843600 0.514899
1.000000 0.883027 0.519015
1.000000 0.911238 0.526564
1.000000 0.932292 0.537641
1.000000 0.948769 0.551913
1.000000 0.961874 0.569695
1.000000 0.972291 0.591184
1.000000 0.980701 0.615794
1.000000 0.987433 0.642963
1.000000 0.992893 0.670425
0.000000 0.021477 0.000000
0.000000 0.022273 0.000000
0.000000 0.023054 0.000000
0.000000 0.023819 0.000000
0.000000 0.024582 0.000000
0.000000 0.025333 0.000000
0.000000 0.026071 0.000000
0.000000 0.026796 0.000000
0.004198 0.026604 0.000000
0.032187 0.025511 0.000000
0.046855 0.024013 0.000000
0.060496 0.021499 0.000000
0.075344 0.014804 0.000000
0.090783 0.006300 0.000000
0.104899 0.000000 0.000000
0.118358 0.000000 0.000000
0.132758 0.000000 0.000000
0.148688 0.000000 0.000000
0.166293 0.000000 0.000000
0.186340 0.000000 0.000000
0.209059 0.000000 0.000000
0.234354 0.000000 0.000000
0.262924 0.000000 0.000000
0.293424 0.000000 0.000000
0.326416 0.000000 0.000000
0.364201 0.000000 0.000000
0.406658 0.000000 0.000000
0.454719 0.000000 0.000000
0.508866 0.000000 0.000000
0.567036 0.000000 0.000000
0.628042 0.000000 0.000000
0.690869 0.000000 0.000000
0.754727 0.000000 0.000000
0.818949 0.000000 0.000000
0.880533 0.000000 0.000000
0.935784 0.000000 0.000000
0.981071 0.000000 0.025521
1.000000 0.000000 0.047294
1.000000 0.000000 0.065073
1.000000 0.000000 0.082783
1.000000 0.000000 0.101278
1.000000 0.000000 0.121015
1.000000 0.000000 0.142936
1.000000 0.000000 0.166702
1.000000 0.000000 0.192474
1.000000 0.000000 0.221020
1.000000 0.000000 0.252088
1.000000 0.111625 0.286680
1.000000 0.159249 0.326017
1.000000 0.293781 0.369970
1.000000 0.385107 0.418086
1.000000 0.464074 0.468473
1.000000 0.533951 0.520355
1.000000 0.686934 0.519210
1.000000 0.786287 0.514464
1.000000 0.843771 0.514908
1.000000 0.883131 0.519032
1.000000 0.911295 0.526590
1.000000 0.932330 0.537668
1.000000 0.948795 0.551940
1.000000 0.961890 0.569725
1.000000 0.972302 0.591212
1.000000 0.980708 0.615820
1.000000 0.987438 0.642985
1.000000 0.992896 0.670443
0.000000 0.034405 0.000000
0.000000 0.034954 0.000000
0.000000 0.035487 0.000000
0.000000 0.036011 0.000000
0.000000 0.036527 0.000000
0.000000 0.037037 0.000000
0.000000 0.037539 0.000000
0.000000 0.037968 0.000000
0.000000 0.037829 0.000000
0.026014 0.037189 0.000000
0.041501 0.036421 0.000000
0.054000 0.035660 0.000000
0.068251 0.034001 0.000000
0.084502 0.030672 0.000000
0.100289 0.025057 0.000000
0.115225 0.015018 0.000000
0.130745 0.000000 0.000000
0.147374 0.000000 0.000000
0.165435 0.000000 0.000000
0.185846 0.000000 0.000000
0.208755 0.000000 0.000000
0.234193 0.000000 0.000000
0.262848 0.000000 0.000000
0.293341 0.000000 0.000000
0.326412 0.000000 0.000000
0.364212 0.000000 0.000000
0.406681 0.000000 0.000000
0.454776 0.000000 0.000000
0.508920 0.000000 0.000000
0.567078 0.000000 0.000000
0.628067 0.000000 0.000000
0.690884 0.000000 0.000000
0.754730 0.000000 0.000000
0.818934 0.000000 0.000000
0.880496 0.000000 0.000000
0.935721 0.000000 0.000000
0.980976 0.000000 0.021939
1.000000 0.000000 0.046410
1.000000 0.000000 0.064687
1.000000 0.000000 0.082457
1.000000 0.000000 0.100994
1.000000 0.000000 0.120768
1.000000 0.000000 0.142708
1.000000 0.000000 0.166501
1.000000 0.000000 0.192296
1.000000 0.000000 0.220845
1.000000 0.000000 0.251930
1.000000 0.115880 0.286536
1.000000 0.165611 0.325884
1.000000 0.297187 0.369860
1.000000 0.387493 0.417994
1.000000 0.465775 0.468397
1.000000 0.535298 0.520292
1.000000 0.687691 0.519166
1.000000 0.786567 0.514462
1.000000 0.843942 0.514918
1.000000 0.883236 0.519048
1.000000 0.911351 0.526616
1.000000 0.932369 0.537695
1.000000 0.948822 0.551967
1.000000 0.961906 0.569754
1.000000 0.972313 0.591239
1.000000 0.980716 0.615845
1.000000 0.987442 0.643008
1.000000 0.992900 0.670462
0.000000 0.043595 0.000000
0.000000 0.044016 0.000000
0.000000 0.044432 0.000000
0.000000 0.044843 0.000000
0.000000 0.045249 0.000000
0.000000 0.045655 0.000000
0.000000 0.046062 0.000000
0.000000 0.046350 0.000000
0.000000 0.046237 0.000000
0.015320 0.045748 0.000000
0.037760 0.045166 0.000000
0.050232 0.044482 0.000000
0.063459 0.043642 0.000000
0.078917 0.041729 0.000000
0.095390 0.038565 0.000000
0.111802 0.034117 0.000000
0.128543 0.026657 0.000000
0.145959 0.013418 0.000000
0.164544 0.000000 0.000000
0.185366 0.000000 0.000000
0.208491 0.000000 0.000000
0.234108 0.000000 0.000000
0.262811 0.000000 0.000000
0.293293 0.000000 0.000000
0.326436 0.000000 0.000000
0.364244 0.000000 0.000000
0.406714 0.000000 0.000000
0.454844 0.000000 0.000000
0.508975 0.000000 0.000000
0.567125 0.000000 0.000000
0.628106 0.000000 0.000000
0.690896 0.000000 0.000000
0.754726 0.000000 0.000000
0.818919 0.000000 0.000000
0.880456 0.000000 0.000000
0.935663 0.000000 0.000000
0.980884 0.000000 0.018441
1.000000 0.000000 0.045265
1.000000 0.000000 0.064015
1.000000 0.000000 0.082120
1.000000 0.000000 0.100712
1.000000 0.000000 0.120522
1.000000 0.000000 0.142482
1.000000 0.000000 0.166302
1.000000 0.000000 0.192119
1.000000 0.000000 0.220671
1.000000 0.000000 0.251771
1.000000 0.120123 0.286393
1.000000 0.171961 0.325752
1.000000 0.300586 0.369750
1.000000 0.389876 0.417903
1.000000 0.467474 0.468320
1.000000 0.536645 0.520229
1.000000 0.688448 0.519121
1.000000 0.786847 0.514460
1.000000 0.844113 0.514927
1.000000 0.883340 0.519065
1.000000 0.911408 0.526642
1.000000 0.932407 0.537722
1.000000 0.948848 0.551993
1.000000 0.961922 0.569784
1.000000 0.972324 0.591267
1.000000 0.980724 0.615870
1.000000 0.987447 0.643030
1.000000 0.992903 0.670480
0.000000 0.051921 0.000000
0.000000 0.052297 0.000000
0.000000 0.052670 0.000000
0.000000 0.053040 0.000000
0.000000 0.053407 0.000000
0.000000 0.053770 0.000000
0.000000 0.054130 0.000000
0.000000 0.054320 0.000000
0.000000 0.054204 0.000000
0.005680 0.053804 0.000000
0.031975 0.053327 0.000000
0.046803 0.052772 0.000000
0.059953 0.051978 0.000000
0.074682 0.050766 0.000000
0.090877 0.048667 0.000000
0.108013 0.045578 0.000000
0.125896 0.041163 0.000000
0.144239 0.034228 0.000000
0.163551 0.020872 0.000000
0.184801 0.000000 0.000000
0.208196 0.000000 0.000000
0.234029 0.000000 0.000000
0.262788 0.000000 0.000000
0.293255 0.000000 0.000000
0.326483 0.000000 0.000000
0.364294 0.000000 0.000000
0.406761 0.000000 0.000000
0.454934 0.000000 0.000000
0.509043 0.000000 0.000000
0.567175 0.000000 0.000000
0.628136 0.000000 0.000000
0.690908 0.000000 0.000000
0.754713 0.000000 0.000000
0.818887 0.000000 0.000000
0.880417 0.000000 0.000000
0.935603 0.000000 0.000000
0.980785 0.000000 0.014640
1.000000 0.000000 0.044015
1.000000 0.000000 0.063272
1.000000 0.000000 0.081514
1.000000 0.000000 0.100372
1.000000 0.000000 0.120252
1.000000 0.000000 0.142233
1.000000 0.000000 0.166081
1.000000 0.000000 0.191923
1.000000 0.000000 0.220477
1.000000 0.000000 0.251596
1.000000 0.124836 0.286235
1.000000 0.179015 0.325605
1.000000 0.304366 0.369628
1.000000 0.392525 0.417801
1.000000 0.469364 0.468235
1.000000 0.538142 0.520159
1.000000 0.689290 0.519072
1.000000 0.787158 0.514458
1.000000 0.844303 0.514937
1.000000 0.883456 0.519083
1.000000 0.911471 0.526671
1.000000 0.932450 0.537751
1.000000 0.948877 0.552023
1.000000 0.961939 0.569817
1.000000 0.972336 0.591298
1.000000 0.980733 0.615898
1.000000 0.987452 0.643056
1.000000 0.992907 0.670500
0.000000 0.061048 0.000000
0.000000 0.061379 0.000000
0.000000 0.061707 0.000000
0.000000 0.062034 0.000000
0.000000 0.062357 0.000000
0.000000 0.062679 0.000000
0.000000 0.063000 0.000000
0.000000 0.063111 0.000000
0.000000 0.063021 0.000000
0.000000 0.062702 0.000000
0.017709 0.062335 0.000000
0.040720 0.061903 0.000000
0.056029 0.061278 0.000000
0.070780 0.060319 0.000000
0.086760 0.058835 0.000000
0.104107 0.056595 0.000000
0.122619 0.053382 0.000000
0.141956 0.048876 0.000000
0.162229 0.042146 0.000000
0.184052 0.028018 0.000000
0.207818 0.004814 0.000000
0.233939 0.000000 0.000000
0.262774 0.000000 0.000000
0.293231 0.000000 0.000000
0.326552 0.000000 0.000000
0.364375 0.000000 0.000000
0.406839 0.000000 0.000000
0.455043 0.000000 0.000000
0.509136 0.000000 0.000000
0.567246 0.000000 0.000000
0.628188 0.000000 0.000000
0.690925 0.000000 0.000000
0.754711 0.000000 0.000000
0.818853 0.000000 0.000000
0.880354 0.000000 0.000000
0.935536 0.000000 0.000000
0.980682 0.000000 0.010341
1.000000 0.000000 0.042844
1.000000 0.000000 0.062391
1.000000 0.000000 0.080793
1.000000 0.000000 0.099770
1.000000 0.000000 0.119884
1.000000 0.000000 0.141934
1.000000 0.000000 0.165816
1.000000 0.000000 0.191688
1.000000 0.000000 0.220245
1.000000 0.000000 0.251385
1.000000 0.130509 0.286043
1.000000 0.187515 0.325428
1.000000 0.308921 0.369481
1.000000 0.395722 0.417678
1.000000 0.471644 0.468132
1.000000 0.539950 0.520074
1.000000 0.690307 0.519012
1.000000 0.787534 0.514455
1.000000 0.844533 0.514950
1.000000 0.883597 0.519106
1.000000 0.911548 0.526706
1.000000 0.932502 0.537788
1.000000 0.948913 0.552059
1.000000 0.961961 0.569856
1.000000 0.972351 0.591335
1.000000 0.980743 0.615932
1.000000 0.987459 0.643086
1.000000 0.992911 0.670524
0.000000 0.071131 0.000000
0.000000 0.071453 0.000000
0.000000 0.071773 0.000000
0.000000 0.072091 0.000000
0.000000 0.072407 0.000000
0.000000 0.072721 0.000000
0.000000 0.072971 0.000000
0.000000 0.073033 0.000000
0.000000 0.072945 0.000000
0.000000 0.072681 0.000000
0.000000 0.072378 0.000000
0.026296 0.072019 0.000000
0.049427 0.071512 0.000000
0.066070 0.070762 0.000000
0.082647 0.069635 0.000000
0.100211 0.067968 0.000000
0.119044 0.065592 0.000000
0.139095 0.062321 0.000000
0.160443 0.057722 0.000000
0.183048 0.050929 0.000000
0.207320 0.037816 0.000000
0.233826 0.016762 0.000000
0.262772 0.000000 0.000000
0.293235 0.000000 0.000000
0.326666 0.000000 0.000000
0.364501 0.000000 0.000000
0.406958 0.000000 0.000000
0.455207 0.000000 0.000000
0.509265 0.000000 0.000000
0.567344 0.000000 0.000000
0.628246 0.000000 0.000000
0.690945 0.000000 0.000000
0.754694 0.000000 0.000000
0.818817 0.000000 0.000000
0.880273 0.000000 0.000000
0.935417 0.000000 0.000000
0.980766 0.000000 0.008363
1.000000 0.000000 0.041505
1.000000 0.000000 0.061352
1.000000 0.000000 0.079940
1.000000 0.000000 0.099054
1.000000 0.000000 0.119265
