core/schema/project/admin/processing/nuke_scripts/nuke15/script_resources/Marvel_20180214_ACEScct_to_RRTODT_Rec709_65x.cube
TITLE "Generated by Foundry::LUT"
LUT_3D_SIZE 9
0.000000 0.000000 0.000000
0.000000 0.000000 0.000000
0.129124 0.000000 0.000000
0.325365 0.000000 0.000000
0.754634 0.000000 0.000000
1.000000 0.000000 0.103646
1.000000 0.117166 0.327051
1.000000 0.882293 0.518899
1.000000 0.992870 0.670298
0.000000 0.021477 0.000000
0.004198 0.026604 0.000000
0.132758 0.000000 0.000000
0.326416 0.000000 0.000000
0.754727 0.000000 0.000000
1.000000 0.000000 0.101278
1.000000 0.159249 0.326017
1.000000 0.883131 0.519032
1.000000 0.992896 0.670443
0.000000 0.109318 0.000000
0.000000 0.110354 0.000000
0.104398 0.106649 0.000000
0.327680 0.045269 0.000000
0.754639 0.000000 0.000000
1.000000 0.000000 0.096006
1.000000 0.242656 0.324281
1.000000 0.884518 0.519251
1.000000 0.992941 0.670685
0.000000 0.302757 0.000000
0.000000 0.302586 0.000000
0.000000 0.301602 0.000000
0.294542 0.289608 0.000000
0.755929 0.215882 0.000000
1.000000 0.105231 0.033830
1.000000 0.423712 0.316023
1.000000 0.890340 0.520292
1.000000 0.993137 0.671758
0.000000 0.700413 0.000000
0.000000 0.700355 0.000000
0.000000 0.700053 0.000000
0.000000 0.696958 0.000000
0.690600 0.674078 0.000000
1.000000 0.659694 0.000000
1.000000 0.718315 0.286547
1.000000 0.910424 0.526191
1.000000 0.994016 0.676555
0.000000 0.963602 0.000000
0.000000 0.963298 0.000000
0.000000 0.962806 0.000000
0.000000 0.959955 0.000000
0.536037 0.944398 0.000000
0.949081 0.924734 0.000000
1.000000 0.922104 0.331270
1.000000 0.954800 0.559371
1.000000 0.997223 0.696034
0.042385 1.000000 0.439537
0.059106 1.000000 0.439636
0.086741 1.000000 0.439800
0.206879 1.000000 0.440517
0.599878 1.000000 0.444410
0.913432 0.999968 0.466374
1.000000 0.994521 0.568369
1.000000 0.996068 0.688850
1.000000 1.000000 0.736428
0.978918 1.000000 0.727716
0.979032 1.000000 0.727758
0.979221 1.000000 0.727826
0.980061 1.000000 0.728130
0.983066 1.000000 0.729486
0.993879 1.000000 0.735799
1.000000 1.000000 0.761012
1.000000 1.000000 0.736428
1.000000 1.000000 0.736428
1.000000 1.000000 0.873657
1.000000 1.000000 0.873652
1.000000 1.000000 0.873644
1.000000 1.000000 0.873609
1.000000 1.000000 0.873446
1.000000 1.000000 0.872697
1.000000 1.000000 0.869146
1.000000 1.000000 0.849764
1.000000 1.000000 0.736428
0.000000 0.000000 0.033865
0.019974 0.000000 0.033375
0.134450 0.000000 0.034410
0.328963 0.000000 0.032088
0.756325 0.000000 0.000000
1.000000 0.000000 0.103512
1.000000 0.121340 0.327000
1.000000 0.882386 0.518914
1.000000 0.992873 0.670314
0.000000 0.031046 0.033187
0.032419 0.032419 0.032419
0.137147 0.000000 0.034362
0.330047 0.000000 0.031363
0.756392 0.000000 0.000000
1.000000 0.000000 0.101159
1.000000 0.164443 0.325963
1.000000 0.883224 0.519046
1.000000 0.992899 0.670459
0.000000 0.112475 0.013165
0.000000 0.112842 0.010576
0.111590 0.109159 0.014672
0.330642 0.054170 0.003623
0.756268 0.000000 0.000000
1.000000 0.000000 0.095797
1.000000 0.247658 0.324232
1.000000 0.884610 0.519266
1.000000 0.992944 0.670701
0.000000 0.304079 0.000000
0.000000 0.303893 0.000000
0.000000 0.302846 0.000000
0.298689 0.290780 0.000000
0.757391 0.218590 0.000000
1.000000 0.112453 0.033771
1.000000 0.425471 0.315974
1.000000 0.890411 0.520313
1.000000 0.993140 0.671775
0.000000 0.700798 0.000000
0.000000 0.700724 0.000000
0.000000 0.700418 0.000000
0.000000 0.697306 0.000000
0.691975 0.674553 0.000000
1.000000 0.660406 0.000000
1.000000 0.718773 0.286562
1.000000 0.910475 0.526214
1.000000 0.994019 0.676571
0.000000 0.963531 0.000000
0.000000 0.963242 0.000000
0.000000 0.962778 0.000000
0.000000 0.959952 0.000000
0.536226 0.944381 0.000000
0.949202 0.924770 0.000000
1.000000 0.922146 0.331382
1.000000 0.954819 0.559397
1.000000 0.997225 0.696047
0.045347 1.000000 0.445564
0.061867 1.000000 0.445663
0.089173 1.000000 0.445825
0.207882 1.000000 0.446517
0.599540 1.000000 0.450293
0.913277 0.999961 0.471798
1.000000 0.994523 0.568423
1.000000 0.996071 0.688863
1.000000 1.000000 0.736428
0.978741 1.000000 0.731735
0.978854 1.000000 0.731778
0.979044 1.000000 0.731849
0.979883 1.000000 0.732162
0.982878 1.000000 0.733564
0.993708 1.000000 0.739574
1.000000 1.000000 0.764106
1.000000 1.000000 0.736428
1.000000 1.000000 0.736428
1.000000 1.000000 0.874522
1.000000 1.000000 0.874517
1.000000 1.000000 0.874510
1.000000 1.000000 0.874474
1.000000 1.000000 0.874314
1.000000 1.000000 0.873575
1.000000 1.000000 0.870088
1.000000 1.000000 0.851005
1.000000 1.000000 0.736428
0.000000 0.000000 0.111950
0.000000 0.000000 0.111887
0.124946 0.000000 0.111059
0.333861 0.000000 0.108860
0.758366 0.000000 0.106165
1.000000 0.000000 0.134577
1.000000 0.128266 0.326914
1.000000 0.882542 0.518938
1.000000 0.992878 0.670341
0.000000 0.032704 0.111774
0.005979 0.032634 0.111639
0.127671 0.000000 0.111052
0.331960 0.000000 0.108920
0.758256 0.000000 0.105977
1.000000 0.000000 0.133269
1.000000 0.173066 0.325874
1.000000 0.883379 0.519071
1.000000 0.992904 0.670486
0.000000 0.112980 0.108532
0.000000 0.112104 0.108016
0.105393 0.105393 0.105393
0.328188 0.053364 0.107118
0.757106 0.000000 0.103825
1.000000 0.000000 0.130101
1.000000 0.255959 0.324150
1.000000 0.884763 0.519290
1.000000 0.992949 0.670728
0.000000 0.303751 0.070570
0.000000 0.303607 0.070853
0.000000 0.302651 0.071733
0.297848 0.290991 0.072910
0.755062 0.219936 0.070460
1.000000 0.118158 0.103609
1.000000 0.428392 0.315893
1.000000 0.890530 0.520347
1.000000 0.993145 0.671801
0.000000 0.700801 0.000000
0.000000 0.700731 0.000000
0.000000 0.700429 0.000000
0.000000 0.697307 0.000000
0.691567 0.674561 0.000000
1.000000 0.660951 0.000000
1.000000 0.719534 0.286586
1.000000 0.910559 0.526253
1.000000 0.994023 0.676597
0.000000 0.963406 0.000000
0.000000 0.963142 0.000000
0.000000 0.962718 0.000000
0.000000 0.959928 0.000000
0.535196 0.944343 0.000000
0.948826 0.924733 0.000000
1.000000 0.922217 0.331568
1.000000 0.954850 0.559439
1.000000 0.997228 0.696068
0.049574 1.000000 0.467969
0.065834 1.000000 0.468056
0.092714 1.000000 0.468200
0.209578 1.000000 0.468811
0.598311 1.000000 0.472291
0.912683 0.999947 0.492279
1.000000 0.994510 0.573574
1.000000 0.996074 0.688886
1.000000 1.000000 0.736428
0.978442 1.000000 0.738302
0.978556 1.000000 0.738340
0.978746 1.000000 0.738405
0.979588 1.000000 0.738690
0.982584 1.000000 0.739954
0.993424 1.000000 0.745756
1.000000 1.000000 0.769071
1.000000 1.000000 0.736428
1.000000 1.000000 0.736428
1.000000 1.000000 0.875938
1.000000 1.000000 0.875933
1.000000 1.000000 0.875925
1.000000 1.000000 0.875891
1.000000 1.000000 0.875733
1.000000 1.000000 0.875011
1.000000 1.000000 0.871607
1.000000 1.000000 0.853040
1.000000 1.000000 0.736428
0.000000 0.000000 0.300291
0.000000 0.000000 0.300273
0.091606 0.000000 0.299694
0.343850 0.000000 0.296487
0.766918 0.000000 0.294673
1.000000 0.000000 0.313117
1.000000 0.152772 0.404172
1.000000 0.883232 0.519048
1.000000 0.992900 0.670461
0.000000 0.013418 0.300288
0.000000 0.010100 0.300283
0.091489 0.000000 0.299772
0.343721 0.000000 0.296675
0.765754 0.000000 0.294810
1.000000 0.000000 0.312892
1.000000 0.201358 0.403470
1.000000 0.884065 0.519180
1.000000 0.992926 0.670606
0.000000 0.107658 0.298816
0.000000 0.107402 0.298861
0.040213 0.103489 0.298671
0.339818 0.004088 0.296532
0.763172 0.000000 0.294716
1.000000 0.000000 0.312273
1.000000 0.280061 0.402339
1.000000 0.885445 0.519398
1.000000 0.992970 0.670848
0.000000 0.300901 0.289332
0.000000 0.300878 0.289432
0.000000 0.300082 0.289618
0.289273 0.289273 0.289272
0.750694 0.219866 0.290056
1.000000 0.074016 0.306835
1.000000 0.433788 0.396920
1.000000 0.891058 0.520499
1.000000 0.993167 0.671920
0.000000 0.700667 0.239074
0.000000 0.700611 0.239207
0.000000 0.700294 0.239588
0.000000 0.697214 0.241174
0.689004 0.674460 0.246692
1.000000 0.661283 0.271397
1.000000 0.720617 0.379783
1.000000 0.910936 0.526425
1.000000 0.994044 0.676711
0.000000 0.962996 0.262631
0.000000 0.962836 0.262772
0.000000 0.962573 0.262988
0.000000 0.959747 0.264570
0.529755 0.944129 0.272348
0.946558 0.924520 0.312151
1.000000 0.922170 0.423071
1.000000 0.954986 0.559628
1.000000 0.997244 0.696165
0.066257 1.000000 0.551155
0.080945 1.000000 0.551208
0.105225 1.000000 0.551295
0.210730 1.000000 0.551671
0.592619 1.000000 0.554149
0.910139 0.999878 0.569220
1.000000 0.994313 0.633396
1.000000 0.996091 0.688987
1.000000 1.000000 0.736428
0.977267 1.000000 0.763685
0.977382 1.000000 0.763719
0.977573 1.000000 0.763775
0.978419 1.000000 0.764023
0.981386 1.000000 0.765096
0.992296 1.000000 0.769690
1.000000 1.000000 0.788705
1.000000 1.000000 0.748079
1.000000 1.000000 0.736428
1.000000 1.000000 0.881866
1.000000 1.000000 0.881862
1.000000 1.000000 0.881855
1.000000 1.000000 0.881824
1.000000 1.000000 0.881682
1.000000 1.000000 0.881031
1.000000 1.000000 0.877953
1.000000 1.000000 0.861453
1.000000 1.000000 0.736428
0.000000 0.000000 0.698931
0.000000 0.000000 0.698913
0.000000 0.000000 0.698755
0.287976 0.000000 0.696801
0.801617 0.000000 0.691395
1.000000 0.000000 0.694864
1.000000 0.126751 0.722908
1.000000 0.884124 0.684335
1.000000 0.993000 0.671007
0.000000 0.000000 0.698915
0.000000 0.000000 0.698900
0.000000 0.000000 0.698740
0.288042 0.000000 0.696783
0.801430 0.000000 0.691406
1.000000 0.000000 0.694761
1.000000 0.174868 0.722459
1.000000 0.884969 0.684405
1.000000 0.993026 0.671152
0.000000 0.081936 0.698327
0.000000 0.082377 0.698318
0.000000 0.078265 0.698168
0.284305 0.019024 0.696405
0.800216 0.000000 0.691310
1.000000 0.000000 0.694437
1.000000 0.253517 0.721730
1.000000 0.886367 0.684520
1.000000 0.993070 0.671393
0.000000 0.295756 0.692829
0.000000 0.295576 0.692837
0.000000 0.294806 0.692808
0.212669 0.284850 0.692124
0.785779 0.183886 0.689072
1.000000 0.071832 0.691995
1.000000 0.426918 0.718377
1.000000 0.891417 0.685167
1.000000 0.993266 0.672460
0.000000 0.699333 0.672716
0.000000 0.699292 0.672732
0.000000 0.698921 0.672794
0.000000 0.695776 0.672964
0.673121 0.673121 0.673121
0.999999 0.659850 0.678035
1.000000 0.719113 0.707271
1.000000 0.911038 0.688508
1.000000 0.994140 0.677234
0.000000 0.961853 0.673186
0.000000 0.961712 0.673209
0.000000 0.961442 0.673233
0.000000 0.958589 0.673432
0.508859 0.943024 0.674261
0.935673 0.923543 0.682880
1.000000 0.921382 0.713749
1.000000 0.954724 0.707451
1.000000 0.997314 0.696604
0.000000 1.000000 0.755718
0.000000 1.000000 0.755718
0.000000 1.000000 0.755718
0.000000 1.000000 0.755715
0.577868 1.000000 0.756024
0.901350 0.999577 0.760573
1.000000 0.993698 0.782833
1.000000 0.995731 0.780228
1.000000 1.000000 0.736428
0.973670 1.000000 0.835837
0.973788 1.000000 0.835853
0.973984 1.000000 0.835880
0.974740 1.000000 0.835997
0.977681 1.000000 0.836499
0.988760 1.000000 0.838749
1.000000 1.000000 0.848546
1.000000 1.000000 0.828143
1.000000 1.000000 0.736428
1.000000 1.000000 0.903423
1.000000 1.000000 0.903420
1.000000 1.000000 0.903415
1.000000 1.000000 0.903393
1.000000 1.000000 0.903293
1.000000 1.000000 0.902832
1.000000 1.000000 0.900687
1.000000 1.000000 0.889788
1.000000 1.000000 0.783382
0.000000 0.005297 0.969647
0.000000 0.000000 0.969497
0.000000 0.000000 0.969210
0.151837 0.000000 0.967553
0.782400 0.000000 0.960309
1.000000 0.000000 0.955613
1.000000 0.150094 0.952335
1.000000 0.883223 0.923779
1.000000 0.992271 0.879226
0.000000 0.026263 0.969360
0.000000 0.016562 0.969234
0.000000 0.000905 0.969029
0.156891 0.000000 0.967404
0.781725 0.000000 0.960191
1.000000 0.000000 0.955409
1.000000 0.177035 0.951938
1.000000 0.883962 0.923736
1.000000 0.992298 0.879247
0.000000 0.063287 0.968871
0.000000 0.053931 0.968744
0.000000 0.038841 0.968537
0.166863 0.015027 0.966968
0.780260 0.000000 0.959819
1.000000 0.000000 0.955020
1.000000 0.231218 0.951242
1.000000 0.885186 0.923666
1.000000 0.992343 0.879282
0.000000 0.292909 0.963715
0.000000 0.292674 0.963656
0.000000 0.292342 0.963560
0.151462 0.283030 0.962448
0.765974 0.150618 0.956883
1.000000 0.014766 0.952530
1.000000 0.406179 0.947836
1.000000 0.890537 0.923359
1.000000 0.992542 0.879438
0.000000 0.698696 0.943079
0.000000 0.698473 0.943055
0.000000 0.698123 0.943015
0.000000 0.694995 0.942661
0.646674 0.672411 0.940417
1.000000 0.649684 0.938024
1.000000 0.714429 0.935820
1.000000 0.910132 0.922270
1.000000 0.993433 0.880135
0.000000 0.960427 0.924938
0.000000 0.960332 0.924929
0.000000 0.960059 0.924906
0.000000 0.957124 0.924649
0.450041 0.941931 0.923393
0.922428 0.922427 0.922428
1.000000 0.920324 0.924029
1.000000 0.954002 0.920639
1.000000 0.996607 0.883161
0.000000 1.000000 0.925315
0.000000 1.000000 0.925299
0.000000 1.000000 0.925273
0.000000 1.000000 0.925157
0.543692 1.000000 0.924427
0.891983 0.998980 0.923931
0.996921 0.992926 0.926308
1.000000 0.995036 0.925399
1.000000 1.000000 0.890840
0.967866 1.000000 0.934051
0.967963 1.000000 0.934054
0.968125 1.000000 0.934058
0.968844 1.000000 0.934075
0.972046 1.000000 0.934150
0.983324 1.000000 0.934530
1.000000 1.000000 0.936399
1.000000 1.000000 0.932375
1.000000 1.000000 0.898844
1.000000 1.000000 0.950801
1.000000 1.000000 0.950801
1.000000 1.000000 0.950799
1.000000 1.000000 0.950792
1.000000 1.000000 0.950758
1.000000 1.000000 0.950607
1.000000 1.000000 0.949908
1.000000 1.000000 0.946558
1.000000 1.000000 0.925342
0.068168 0.081607 1.000000
0.087231 0.080105 1.000000
0.118778 0.077631 1.000000
0.265782 0.079116 1.000000
0.753056 0.000000 1.000000
1.000000 0.000000 1.000000
1.000000 0.034514 1.000000
1.000000 0.880557 0.999206
1.000000 0.992109 0.989857
0.072007 0.105336 1.000000
0.091055 0.103824 1.000000
0.122571 0.101333 1.000000
0.265311 0.097406 1.000000
0.751546 0.009004 1.000000
1.000000 0.014049 1.000000
1.000000 0.058786 1.000000
1.000000 0.881356 0.999188
1.000000 0.992133 0.989856
0.078394 0.144316 1.000000
0.097410 0.142787 1.000000
0.128876 0.140270 1.000000
0.266163 0.129458 1.000000
0.747157 0.036142 1.000000
1.000000 0.050451 1.000000
1.000000 0.098836 1.000000
1.000000 0.882679 0.999158
1.000000 0.992173 0.989855
0.106724 0.310433 1.000000
0.125604 0.308840 1.000000
0.156854 0.306216 1.000000
0.293209 0.295353 1.000000
0.728950 0.175590 1.000000
1.000000 0.206343 1.000000
1.000000 0.271951 1.000000
1.000000 0.888492 0.999027
1.000000 0.992350 0.989848
0.000000 0.700826 1.000000
0.000000 0.700585 1.000000
0.000000 0.700190 1.000000
0.000000 0.698516 1.000000
0.534168 0.681770 1.000000
0.996237 0.650438 1.000000
1.000000 0.688903 1.000000
1.000000 0.908562 0.997939
1.000000 0.993146 0.989819
0.000000 0.956955 0.999990
0.000000 0.956644 0.999990
0.000000 0.956129 0.999989
0.000000 0.953880 0.999987
0.328551 0.942324 0.999621
0.915974 0.922304 0.998306
1.000000 0.917846 0.997669
1.000000 0.953688 0.994801
1.000000 0.996240 0.989719
0.112282 1.000000 0.994968
0.116279 1.000000 0.994956
0.122914 1.000000 0.994937
0.169455 1.000000 0.994816
0.491408 1.000000 0.994086
0.885226 0.998513 0.992952
0.992614 0.992613 0.992614
1.000000 0.995064 0.992140
1.000000 1.000000 0.989695
0.965496 1.000000 0.992621
0.965593 1.000000 0.992621
0.965756 1.000000 0.992621
0.966478 1.000000 0.992620
0.969708 1.000000 0.992613
0.980569 1.000000 0.992603
0.999744 1.000000 0.992698
1.000000 1.000000 0.992292
1.000000 1.000000 0.990070
1.000000 1.000000 0.994109
1.000000 1.000000 0.994109
1.000000 1.000000 0.994109
1.000000 1.000000 0.994108
1.000000 1.000000 0.994104
1.000000 1.000000 0.994086
1.000000 1.000000 0.994003
1.000000 1.000000 0.993621
1.000000 1.000000 0.991709
0.997457 0.942600 1.000000
0.997556 0.942595 1.000000
0.997720 0.942586 1.000000
0.998334 0.942556 1.000000
0.999306 0.942444 1.000000
1.000000 0.942032 1.000000
1.000000 0.942313 1.000000
1.000000 0.967572 1.000000
1.000000 0.997878 1.000000
0.997360 0.942819 1.000000
0.997459 0.942813 1.000000
0.997623 0.942804 1.000000
0.998228 0.942775 1.000000
0.999308 0.942669 1.000000
1.000000 0.942254 1.000000
1.000000 0.942555 1.000000
1.000000 0.967685 1.000000
1.000000 0.997892 1.000000
0.997199 0.943181 1.000000
0.997298 0.943175 1.000000
0.997462 0.943166 1.000000
0.998053 0.943138 1.000000
0.999310 0.943043 1.000000
1.000000 0.942623 1.000000
1.000000 0.942956 1.000000
1.000000 0.967872 1.000000
1.000000 0.997915 1.000000
0.996490 0.944778 1.000000
0.996589 0.944773 1.000000
0.996753 0.944763 1.000000
0.997281 0.944739 1.000000
0.999137 0.944680 1.000000
1.000000 0.944251 1.000000
1.000000 0.944727 1.000000
1.000000 0.968701 1.000000
1.000000 0.998017 1.000000
0.993355 0.951761 1.000000
0.993412 0.951759 1.000000
0.993506 0.951754 1.000000
0.993922 0.951734 1.000000
0.995778 0.951652 1.000000
1.000000 0.951368 1.000000
1.000000 0.951121 1.000000
1.000000 0.971668 1.000000
1.000000 0.998477 1.000000
0.983735 0.972186 1.000000
0.983816 0.972182 1.000000
0.983950 0.972175 1.000000
0.984545 0.972145 1.000000
0.987205 0.972013 1.000000
0.996724 0.971524 1.000000
1.000000 0.970878 1.000000
1.000000 0.981964 1.000000
1.000000 1.000000 1.000000
0.971785 0.999245 1.000000
0.971860 0.999241 1.000000
0.971985 0.999233 1.000000
0.972540 0.999198 1.000000
0.975029 0.999045 1.000000
0.984426 0.998465 1.000000
1.000000 0.997472 1.000000
1.000000 0.999709 1.000000
1.000000 1.000000 1.000000
0.996635 1.000000 0.999984
0.996656 1.000000 0.999985
0.996689 1.000000 0.999985
0.996841 1.000000 0.999985
0.997522 1.000000 0.999989
1.000000 1.000000 1.000000
1.000000 1.000000 1.000000
1.000000 1.000000 1.000000
1.000000 1.000000 1.000000
1.000000 1.000000 1.000000
1.000000 1.000000 1.000000
1.000000 1.000000 1.000000
1.000000 1.000000 1.000000
1.000000 1.000000 1.000000
1.000000 1.000000 1.000000
1.000000 1.000000 1.000000
1.000000 1.000000 1.000000
1.000000 1.000000 1.000000
1.000000 1.000000 1.000000
1.000000 1.000000 1.000000
1.000000 1.000000 1.000000
1.000000 1.000000 1.000000
1.000000 1.000000 1.000000
1.000000 1.000000 1.000000
1.000000 1.000000 1.000000
1.000000 1.000000 1.000000
1.000000 1.000000 1.000000
1.000000 1.000000 1.000000
1.000000 1.000000 1.000000
1.000000 1.000000 1.000000
1.000000 1.000000 1.000000
1.000000 1.000000 1.000000
1.000000 1.000000 1.000000
1.000000 1.000000 1.000000
1.000000 1.000000 1.000000
1.000000 1.000000 1.000000
1.000000 1.000000 1.000000
1.000000 1.000000 1.000000
1.000000 1.000000 1.000000
1.000000 1.000000 1.000000
1.000000 1.000000 1.000000
1.000000 1.000000 1.000000
1.000000 1.000000 1.000000
1.000000 1.000000 1.000000
1.000000 1.000000 1.000000
1.000000 1.000000 1.000000
1.000000 1.000000 1.000000
1.000000 1.000000 1.000000
1.000000 1.000000 1.000000
1.000000 1.000000 1.000000
1.000000 1.000000 1.000000
1.000000 1.000000 1.000000
1.000000 1.000000 1.000000
1.000000 1.000000 1.000000
1.000000 1.000000 1.000000
1.000000 1.000000 1.000000
1.000000 1.000000 1.000000
1.000000 1.000000 1.000000
1.000000 1.000000 1.000000
1.000000 1.000000 1.000000
1.000000 1.000000 1.000000
1.000000 1.000000 1.000000
1.000000 1.000000 1.000000
1.000000 1.000000 1.000000
1.000000 1.000000 1.000000
1.000000 1.000000 1.000000
1.000000 1.000000 1.000000
1.000000 1.000000 1.000000
1.000000 1.000000 1.000000
1.000000 1.000000 1.000000
1.000000 1.000000 1.000000
1.000000 1.000000 1.000000
1.000000 1.000000 1.000000
1.000000 1.000000 1.000000
1.000000 1.000000 1.000000
1.000000 1.000000 1.000000
1.000000 1.000000 1.000000
1.000000 1.000000 1.000000
1.000000 1.000000 1.000000
1.000000 1.000000 1.000000
1.000000 1.000000 1.000000
1.000000 1.000000 1.000000
1.000000 1.000000 1.000000
1.000000 1.000000 1.000000
1.000000 1.000000 1.000000
1.000000 1.000000 1.000000
1.000000 1.000000 1.000000
1.000000 1.000000 1.000000
1.000000 1.000000 1.000000
1.000000 1.000000 1.000000
1.000000 1.000000 1.000000
1.000000 1.000000 1.000000
1.000000 1.000000 1.000000
1.000000 1.000000 1.000000
1.000000 1.000000 1.000000
1.000000 1.000000 1.000000
1.000000 1.000000 1.000000
1.000000 1.000000 1.000000
1.000000 1.000000 1.000000
